X:301
T:Hector The Hero 
C:Joe Buchanan's Scottish Tome - Page 515.0
I:515 0
C:J. Scott Skinner
Z:Carl Allison
R:Jig
L:1/8
M:6/8
K:A
W:Lament - Slow
%%vskip 0
A2 | {A}cBA {A}fec | {c}e3 e2 A | {A}c>BA {A}fec | {Ac}(B3 B2) A |
c>BA fec | e2 A !fermata!{A}a2 [Af] | (eA).c {Ac}B2 A | A3- A2 :|
c | f{a}gf {f}agf | {f}e3- e2 c | fec eAc | B3- B2 c |
f{a}gf {f}agf | eAB c<!fermata!af | (eA).c {Ac}B2 A | A3- A2 |]

